svgs/sharp-solid/octagon-divide.svg

<svg xmlns="http://www.w3.org/2000/svg" viewBox="0 0 512 512"><!--! Font Awesome Pro 6.6.0 by @fontawesome - https://fontawesome.com License - https://fontawesome.com/license (Commercial License) Copyright 2024 Fonticons, Inc. --><path d="M0 160L0 352 160 512l192 0L512 352l0-192L352 0 160 0 0 160zm288-32l0 64-64 0 0-64 64 0zM168 232l176 0 24 0 0 48-24 0-176 0-24 0 0-48 24 0zm56 88l64 0 0 64-64 0 0-64z"/></svg>

<svg xmlns="http://www.w3.org/2000/svg" viewBox="0 0 512 512"><!--! Font Awesome Pro 6.4.0 by @fontawesome - https://fontawesome.com License - https://fontawesome.com/license (Commercial License) Copyright 2023 Fonticons, Inc. --><path d="M0 160V352L160 512H352L512 352V160L352 0H160L0 160zm288-32v64H224V128h64zM168 232H344h24v48H344 168 144V232h24zm56 88h64v64H224V320z"/></svg>
